X:1
T:Prelude Op.6-5
T:Prelude
T:S.Liapounow, Op.6.No.6
C:Serge Lyapnov
%%score { ( 1 2 ) | 3 }
L:1/8
Q:1/4=76
M:2/4
K:Ab
V:1 treble nm="Piano" snm="Pno."
V:2 treble 
V:3 bass 
V:1
!p!"^Andantino mosso" z (a2 g) | z (f2 c) | z (f2 d) | z (f2 c) | z!<(! (e2 d) | z (c2 F)!<)! | %6
!mp! z (c2!>(! G) |[Q:1/4=72] z (B2!>)! A)[Q:1/4=68] |!p![Q:1/4=76] z (c'2 b) | z (a2 e) | %10
 z (a2 _f) | z (a2 e) | z!<(! (_g2 _f) | z (e2 A)!<)! |!mp! z (e2!>(! B) | %15
[Q:1/4=70] z (d2!>)! _c)[Q:1/4=64] |!p![Q:1/4=76] z (_c2 B) |"_cresc." z (f2 _g- |g f2 e) | %19
 z!<(! b2 __b-!<)! | b!mp! a2 a- |!>(!a a2 a-!>)! |[Q:1/4=72]a a2!p! a[Q:1/4=68] | %23
!p![Q:1/4=72] z (f'2 d') | z (d2 c) |"_cresc." z (g2 a- |a g2 f) | z!<(! c'2 c'-!<)! | %28
!mp!c'!>(! (c'2 g)!>)! | z (a2 g) | z (f2 =e) | z"_dim." (=e2 c) |!>(! z (c2 G) | z G2!>)!!p! G | %34
"^poco riten." z G2 G[Q:1/4=72] |[Q:1/4=68] z (c2 c')[Q:1/4=64] | %36
!f!"^a tempo"[Q:1/4=76] z ([ac'a']2 [gc'g']- |!<(! [gc'g'] [fc'f']2!8va(! [c'e'c'']-!<)! | %38
!f![c'e'c''] [c'=d'c'']2 [fd'f']- |[fd'f'] [g_d'g']2 [ed'e']) |!mf! z ([bc'b']2 [ac'a']- | %41
[ac'a'] [gd'g']2 [fd'f']) | z ([aba']2 [=eb=e']) | z ([gd'g']2 [fd'f'])!8va)! | %44
"_dim." z ([ebe']2 [dbd']) | z ([faf']2 [cac']) | z ([cfc']2 [cfb]) |!mp! z ([faf']2 [Afa]) | %48
 z ([A=Ba]2 [GBg]- | [GBg]) z[Q:1/4=38] !fermata!z2 | %50
[Q:1/4=76]!mp! z!>(! ([A_Ba]2!>)!"^ritard. sin al fine" [=Ec=e])[Q:1/4=72] | %51
 z!>(! [Gcg]3-[Q:1/4=68][Q:1/4=64] | %52
[Q:1/4=62] [Gcg] [Fcf]3-!>)![Q:1/4=60][Q:1/4=58][Q:1/4=54][Q:1/4=50][Q:1/4=40] | %53
!p![Q:1/4=50] [Fcf] z z2 |!pp! [fc'f']4 |[Q:1/4=30] !fermata![A,F]4 |] %56
V:2
 x [Ac]2 [Ac] | x [Fc]2 [Fc] | x [FB]2 B | x [FA]2 [Fc] | x [FB]2 [FB] | x F2 F | x [DG]2 [DG] | %7
 x C2 C | x [ce]2 [ce] | x [Ae]2 [Ae] | x [Ad]2 d | x [Ac]2 [Ae] | x [Ad]2 [Ad] | x A2 A | %14
 x [_FB]2 [FB] | x E2 E | x [=DA]2 [DB] | x [AB]2 [AB]- |[AB] [_GB]2 [GB] | x [de]2 [de]- | %20
 [de] [cf]2 [ce]- |[ce] [B_g]2 [cf]- |[cf] [Ae]2 [Ad] | x [fa]2 [da] | x [=EB]2 [Ec] | %25
 x [Bc]2 [Bc]- |[Bc] [Ac]2 [Ac] | x [cf]2 [c^f]- |[cf] [cg]2 [c=e] | x [=B=d]2 [Bd] | %30
 x [Gc]2 [Gc] | x [FA]2 [FA] | x [CG]2 [CG] | x ([=A,F]2 [=B,=E]) | x ([G,=D]2 [G,C]) | %35
 x [C=E]2 c | x4 | x3!8va(! x | x4 | x4 | x4 | x4 | x4 | x4!8va)! | x4 | x4 | x4 | x4 | x4 | x4 | %50
 x4 | x4 | x4 | x4 | x4 | x4 |] %56
V:3
"^téneramente"!ped! (3(F,,C,C (3=D,C=E,)!ped-up! |!ped! (3(A,,F,C (3G,CA,)!ped-up! | %2
!ped! (3(B,,DF, (3EF,F)!ped-up! |!ped! (3(C,F,C (3G,CA,)!ped-up! | %4
!ped! (3(D,F,B, (3G,B,A,)!ped-up! |!ped! (3(=D,A,C (3B,CA,)!ped-up! | %6
!ped! (3(E,,E,F, (3E,EE,)!ped-up! |!ped! (3(C,E,F, (3E,EE,)!ped-up! | %8
!ped! (3(A,,E,E (3F,EG,)!ped-up! |!ped! (3(C,A,E (3B,EC)!ped-up! | %10
!ped! (3(D,_FA, (3_GA,A)!ped-up! |!ped! (3(E,A,E (3B,EC)!ped-up! | %12
!ped! (3(_F,A,D (3B,D_C)!ped-up! |!ped! (3(=F,_CE (3DEC)!ped-up! | %14
!ped! (3(_G,,_G,A, (3G,_GG,)!ped-up! |!ped! (3(_C,_G,A, (3G,_GG,)!ped-up! | %16
!ped! (3(F,,F,B,, (3_G,B,,A,!ped-up! |!ped! (3B,,B,B,, (3CB,,=D)!ped-up! | %18
!ped! (3(E,,B,,B, (3C,B,=D,!ped-up! |!ped! (3B,E,E (3F,E_G,)!ped-up! | %20
!ped! (3(A,,_G,C (3A,CG,!ped-up! |!ped! (3CE,C (3F,C_G,)!ped-up! | %22
!ped! (3(D,,A,,A, (3B,,A,C,!ped-up! |!ped! (3A,D,A, (3E,A,F,)!ped-up! | %24
!ped! (3(G,,G,C, (3A,C,B,!ped-up! |!ped! (3C,CC, (3=DC,=E)!ped-up! | %26
!ped! (3(F,,C,C (3=D,C=E,)!ped-up! |!ped! (3(A,,F,C (3_E,C=D,)!ped-up! | %28
!ped! (3(G,,=E,C (3F,CG,!ped-up! |!ped! (3=B,F,B, (3G,B,A,)!ped-up! | %30
!ped! (3(G,,=E,C (3F,CG,!ped-up! |!ped! (3CF,C (3G,CA,)!ped-up! | %32
!ped! (3(G,,=E,G, (3F,G,E,!ped-up! |!ped! (3G,=D,G, (3=E,G,F,)!ped-up! | %34
!p!"^cresc."!ped! (3(C,,=G,,=E, (3=A,,E,=B,,!ped-up! |"^molto"!ped! (3=E,C,_B, (3D,B,C,)!ped-up! | %36
"^appassionato"!ped! (3(F,,CC, (3=DC,=E)!ped-up! |!ped! (3(A,,FF, (3GF,A)!ped-up! | %38
!ped! (3(B,,=DA, (3EA,F)!ped-up! |!ped! (3(E,,!>(!EG, (3F!>)!G,G)!ped-up! | %40
!ped! (3(A,,CE, (3DE,E)!ped-up! |!ped! (3(B,,DG, (3EG,F)!ped-up! |!ped! (3(C,=EB, (3FB,G)!ped-up! | %43
!ped! (3(D,FA, (3GA,A)!ped-up! |!ped! (3(B,,DF, (3EF,F)!ped-up! |!ped! (3(C,FA, (3GA,A)!ped-up! | %46
!ped! (3(D,B,F (3CFD)!ped-up! |!ped! (3(=D,!<(!A,F (3B,FC)!ped-up!!<)! | %48
"^poco"!ped! (3(G,,,G,,F, (3=D,=B,F, | =D) z!ped-up! !fermata!z2 | %50
!ped! (3z (C,,=E, (3C,B,C,)!ped-up! |!ped! (3(F,,,!p! C,A, (3=D,A,=E, | (3A,F,A, (3C,A,F,, | %53
 F,,,) z z2!ped-up! |!ped! [F,CA]4!ped-up! |!ped! !fermata![F,,C,]4!ped-up! |] %56

